public/assets/img/material-icons/signal_wifi_bad.svg

<svg height="24" viewBox="0 0 24 24" width="24" xmlns="http://www.w3.org/2000/svg"><path d="m24 8.98a16.88 16.88 0 0 0 -12-4.98c-4.69 0-8.93 1.9-12 4.98l12 12.02v-9h8.99zm-4.41 5.02-2.09 2.09-2.09-2.09-1.41 1.41 2.09 2.09-2.09 2.09 1.41 1.41 2.09-2.08 2.09 2.08 1.41-1.41-2.08-2.09 2.08-2.09z"/></svg>

<svg xmlns="http://www.w3.org/2000/svg" width="24" height="24" viewBox="0 0 24 24"><path d="M24 8.98A16.88 16.88 0 0 0 12 4C7.31 4 3.07 5.9 0 8.98L12 21v-9h8.99L24 8.98zM19.59 14l-2.09 2.09L15.41 14 14 15.41l2.09 2.09L14 19.59 15.41 21l2.09-2.08L19.59 21 21 19.59l-2.08-2.09L21 15.41 19.59 14z"/></svg>
